packages/core/src/svgs/tokens/mono/MNDE.svg

<svg width="24" height="24" viewBox="0 0 24 24" fill="none" xmlns="http://www.w3.org/2000/svg">
<path d="M10.1118 8.83876C12.0062 6.94433 13.9006 5.04992 16.5784 4.55548C20.2728 4.06104 22.8006 6.93879 21.7672 10.7776C21.581 11.5433 21.2282 12.2585 20.7339 12.872L20.7228 12.8887C20.4894 13.1831 20.1672 13.5997 19.8451 13.7832C19.9117 14.0999 20.0006 14.411 20.0838 14.7221V14.7275L20.1506 14.9498L20.1895 15.0831L20.2116 15.1609C20.2783 15.4109 20.3506 15.6608 20.4061 15.9109C20.4228 15.9998 20.4117 16.0886 20.3728 16.172C20.4617 16.4164 20.3227 16.7553 19.9561 16.7497C19.2339 16.8442 18.5117 16.9164 17.795 16.9832C16.5319 17.087 15.2749 17.254 14.0284 17.4831C11.7952 17.872 9.61735 18.5497 7.54515 19.4998C7.49975 19.4991 7.455 19.4889 7.41383 19.4697C7.37266 19.4505 7.336 19.4229 7.30627 19.3887C7.25481 19.3838 7.20526 19.3666 7.16182 19.3386C7.11792 19.3139 7.07999 19.2797 7.05072 19.2386C6.85072 18.8608 6.73405 18.4386 6.61182 18.0164C6.52119 17.6712 6.40988 17.3316 6.2785 16.9998C6.23961 16.9164 6.21183 16.8275 6.18961 16.7387C5.55629 16.9053 4.90073 16.9276 4.2563 16.8053C1.51189 16.3998 1.47855 13.5498 3.04521 11.6998C4.02853 10.5887 5.62296 10.211 7.01738 10.3333C7.11182 10.3554 7.22849 10.3721 7.36183 10.3887C7.65626 10.4332 8.00626 10.4832 8.26181 10.6109C8.89513 10.0499 9.50069 9.44432 10.1062 8.84432V8.83876H10.1118ZM19.4616 13.072C19.7394 12.8499 19.9783 12.5942 20.1895 12.3054C21.245 10.8999 21.595 8.76098 20.7617 7.15545C20.2673 6.09991 19.1451 5.59991 18.0951 5.37769C16.0006 5.04436 14.0006 6.32212 12.4563 7.69434C11.7792 8.29165 11.1269 8.91624 10.5007 9.56653C9.48957 10.5887 8.47847 11.611 7.2896 12.3998C6.86739 12.6776 6.45072 12.0109 6.87293 11.7165C7.08961 11.5665 7.30071 11.411 7.50626 11.2443C6.21183 10.9888 4.78407 11.1777 3.76742 12.0887C3.01187 12.8776 2.34522 14.3831 3.10076 15.3776C4.22852 16.4053 5.95628 16.1386 7.18404 15.4498C7.22979 15.428 7.27949 15.4157 7.33012 15.4139C7.38075 15.4119 7.43124 15.4204 7.47849 15.4387C7.57849 15.472 7.65626 15.5497 7.7007 15.6442C7.86738 16.0998 7.3507 16.3221 6.91182 16.4831C7.10072 16.9108 7.2396 17.3609 7.37848 17.8164V17.822C7.45626 18.0831 7.5396 18.3497 7.62848 18.5998C8.21737 18.2665 8.8618 18.0442 9.50069 17.8276C10.6192 17.431 11.7622 17.1081 12.9229 16.8609C14.5032 16.5303 16.1026 16.2983 17.7116 16.1665H17.7172C18.3506 16.0998 18.9839 16.0387 19.6117 15.9609C19.5561 15.7609 19.5005 15.5665 19.4562 15.3665C19.3774 15.0499 19.2922 14.735 19.2005 14.422C19.1451 14.2221 19.0783 14.0054 19.0727 13.8165C18.3709 13.7525 17.6651 13.7431 16.9617 13.7887C16.7394 13.7978 16.5171 13.8088 16.2951 13.8221C15.5951 13.8665 14.9172 13.9443 14.2173 14.1164C13.8507 14.2109 13.4951 14.3276 13.1284 14.4499H13.1228L13.0506 14.472L12.6784 14.5943C12.6309 14.6096 12.5808 14.615 12.5311 14.6102C12.4814 14.6054 12.4333 14.5905 12.3895 14.5665C12.3441 14.542 12.3041 14.5088 12.2717 14.4688C12.2393 14.4287 12.2152 14.3826 12.2006 14.3332C12.1781 14.2567 12.1776 14.1756 12.1992 14.0988C12.2209 14.0222 12.2636 13.9531 12.3229 13.8998C12.3618 13.8665 12.4062 13.8442 12.4507 13.8276C13.1206 13.5787 13.8075 13.3782 14.5062 13.2276C15.0672 13.1276 15.634 13.0609 16.2006 13.011C16.6728 12.4109 16.745 11.5387 16.4951 10.8221C16.3561 10.3221 17.0673 10.0776 17.2228 10.5776C17.3173 10.8943 17.3784 11.2165 17.4117 11.5442C17.4673 11.8054 17.3451 12.4332 17.1229 12.9665C17.4117 12.9554 17.7062 12.9554 17.995 12.9609C18.2871 12.6707 18.5011 12.3115 18.6172 11.9165C18.695 11.6054 18.7339 11.2943 18.745 10.9721C18.8005 10.4554 19.545 10.5276 19.5005 11.0554C19.5228 11.4554 19.345 12.4054 19.0005 13.011L19.1283 13.022C19.2394 13.022 19.3505 13.0443 19.4616 13.0776V13.072ZM8.9618 16.1665C9.70986 15.8458 10.4851 15.5929 11.2785 15.4109C11.7563 15.2609 11.9785 16.022 11.5006 16.1775L11.2396 16.2442C10.6407 16.3765 10.055 16.5625 9.48957 16.7997C9.36735 16.822 9.22847 16.8998 9.09513 16.972L9.08403 16.9776C8.78958 17.1442 8.48959 17.3109 8.26181 16.9998C8.02293 16.5498 8.52292 16.3442 8.86735 16.2054L8.9618 16.1665Z" fill="white"/>
</svg>

<svg xmlns="http://www.w3.org/2000/svg" width="24" height="24" fill="none" viewBox="0 0 24 24">
    <path fill="#fff" d="M10.112 8.839c1.894-1.895 3.789-3.79 6.466-4.284 3.695-.494 6.223 2.384 5.19 6.223a5.4 5.4 0 0 1-1.034 2.094l-.011.017c-.234.294-.556.71-.878.894.067.317.156.628.239.94v.004l.067.223.038.133.023.078c.066.25.139.5.194.75a.42.42 0 0 1-.033.261c.089.244-.05.583-.417.578-.722.094-1.444.166-2.161.233q-1.895.156-3.767.5A26.4 26.4 0 0 0 7.545 19.5a.32.32 0 0 1-.239-.111.3.3 0 0 1-.144-.05.34.34 0 0 1-.111-.1c-.2-.378-.317-.8-.44-1.223A9 9 0 0 0 6.28 17a1.5 1.5 0 0 1-.09-.261 4.4 4.4 0 0 1-1.933.066C1.512 16.4 1.48 13.55 3.046 11.7c.983-1.111 2.577-1.489 3.971-1.367q.143.032.345.056c.294.044.644.094.9.222.633-.561 1.239-1.167 1.844-1.767V8.84zm9.35 4.233c.277-.222.516-.478.727-.767 1.056-1.405 1.406-3.544.573-5.15-.495-1.055-1.617-1.555-2.667-1.777-2.094-.334-4.094.944-5.639 2.316a33 33 0 0 0-1.955 1.873C9.49 10.589 8.478 11.61 7.29 12.4c-.423.278-.84-.39-.417-.684q.325-.223.633-.472c-1.294-.255-2.722-.066-3.739.845-.755.789-1.422 2.294-.666 3.289 1.128 1.027 2.855.76 4.083.072a.37.37 0 0 1 .294-.011c.1.033.178.11.223.205.166.456-.35.678-.79.84.19.427.329.877.467 1.332v.006c.078.261.162.528.25.778.59-.334 1.234-.556 1.873-.772a27 27 0 0 1 3.422-.967c1.58-.33 3.18-.563 4.789-.695h.005c.634-.066 1.267-.127 1.895-.205-.056-.2-.111-.395-.156-.594a24 24 0 0 0-.255-.945c-.056-.2-.123-.417-.128-.606a13.6 13.6 0 0 0-2.111-.027q-.334.014-.667.033c-.7.045-1.378.122-2.078.294-.366.095-.722.212-1.089.334h-.005l-.072.022-.373.122a.37.37 0 0 1-.289-.027.4.4 0 0 1-.188-.234.42.42 0 0 1 .122-.433.4.4 0 0 1 .128-.072 15 15 0 0 1 2.055-.6c.561-.1 1.128-.167 1.695-.217.472-.6.544-1.472.294-2.189-.139-.5.572-.744.728-.244q.14.475.189.966c.055.261-.067.89-.29 1.422.29-.01.584-.01.873-.005.292-.29.506-.65.622-1.045.078-.31.117-.622.128-.944.055-.517.8-.444.755.083.023.4-.155 1.35-.5 1.956l.128.011c.111 0 .223.022.334.056zm-10.5 3.095a13.6 13.6 0 0 1 2.316-.756c.478-.15.7.611.223.766l-.261.067q-.901.2-1.75.556c-.123.022-.262.1-.395.172l-.011.006c-.294.166-.594.333-.822.022-.24-.45.26-.656.605-.795z"/>
</svg>
